src/img/svg/logo-bank/24.svg

<svg width="140" height="18" viewBox="0 0 140 18" fill="none" xmlns="http://www.w3.org/2000/svg">
<mask id="mask0_34_3455" style="mask-type:luminance" maskUnits="userSpaceOnUse" x="0" y="0" width="140" height="18">
<path d="M0.726562 0.0627441H139.367V17.9351H0.726562V0.0627441Z" fill="white"/>
</mask>
<g mask="url(#mask0_34_3455)">
<path d="M27.7665 3.37524C29.6858 3.37524 31.2536 4.21922 31.9129 4.84971L30.8088 6.20305C29.9468 5.48801 28.8675 5.08683 27.7477 5.06517C25.3349 5.06517 23.8307 6.72532 23.8307 9.00007C23.8307 11.2748 25.2465 12.932 27.7656 12.932C28.9823 12.9094 30.1495 12.4458 31.0501 11.6273L32.0956 13.0253C31.4353 13.7174 29.7901 14.6219 27.7626 14.6219C24.2129 14.6219 22.0156 12.234 22.0156 9.00007C22.0156 5.76716 24.2606 3.37524 27.7665 3.37524ZM38.7173 3.37524C42.0019 3.37524 44.3908 5.76418 44.3908 9.00007C44.3908 12.2369 42.0019 14.6219 38.7173 14.6219C35.4338 14.6219 33.0448 12.234 33.0448 9.00007C33.0448 5.76716 35.4308 3.37524 38.7173 3.37524ZM38.7173 12.929C40.9444 12.929 42.5996 11.254 42.5996 8.99709C42.5996 6.74021 40.9534 5.06219 38.7173 5.06219C36.4813 5.06219 34.8361 6.73723 34.8361 8.99709C34.8361 11.2569 36.4902 12.932 38.7183 12.932L38.7173 12.929ZM55.697 11.2569C55.697 12.8396 54.6823 14.3777 52.0551 14.3777H46.322V3.60758H51.7175C53.8999 3.60758 55.1599 4.95993 55.1599 6.48305C55.1599 7.3429 54.7597 8.12532 53.8075 8.75482C54.7746 9.08943 55.697 9.78248 55.697 11.2569ZM48.0894 5.30943V8.17L51.502 8.15212C52.7143 8.15212 53.3448 7.47695 53.3448 6.67666C53.3448 5.93992 52.8067 5.30943 51.7324 5.30943H48.0894ZM52.1623 12.6867C53.4074 12.6867 53.885 11.9947 53.885 11.2421C53.885 10.4279 53.3141 9.76758 52.1921 9.76758H48.0894V12.6867H52.1623ZM62.7646 8.83028L67.5414 14.3777H65.1763L61.2057 9.67524H59.1633V14.3777H57.3959V3.60758H59.1633V8.06276H61.2057L65.088 3.60758H67.4402L62.7646 8.83028Z" fill="#003790"/>
<path d="M72.985 3.37524C76.2695 3.37524 78.6575 5.76418 78.6575 9.00007C78.6575 12.2369 76.2695 14.6219 72.985 14.6219C69.7004 14.6219 67.3125 12.234 67.3125 9.00007C67.3125 5.76716 69.6955 3.37524 72.985 3.37524ZM72.985 12.929C75.2121 12.929 76.8663 11.254 76.8663 8.99709C76.8663 6.74021 75.221 5.06219 72.984 5.06219C70.749 5.06219 69.1037 6.73723 69.1037 8.99709C69.1037 11.2569 70.7609 12.932 72.985 12.932V12.929ZM90.5614 3.60858H92.2573V14.3568H90.4899V6.38773L86.9552 11.105H85.8799L82.3451 6.38773V14.3777H80.5777V3.60758H82.2826L86.417 9.12517L90.5614 3.60858ZM100.366 8.0151C102.732 8.0151 104.024 9.39723 104.024 11.1795C104.024 12.9618 102.732 14.3767 100.489 14.3767H94.6463V3.60858H103.02V5.31042H96.4166V8.01609L100.366 8.0151ZM100.411 12.6877C101.641 12.6877 102.202 12.0096 102.202 11.1944C102.202 10.3802 101.65 9.70205 100.411 9.70205H96.4166V12.6877H100.411ZM113.841 14.3777L112.673 11.6899H107.598L106.43 14.3777H104.499L109.169 3.62844H111.121L115.793 14.3777H113.841ZM108.279 10.0744H111.98L110.139 5.78702L108.279 10.0744ZM125.073 3.60858H126.84V14.3568H125.073V9.76758H118.851V14.3777H117.083V3.60758H118.851V8.0856H125.073V3.60858ZM134.601 8.83028L139.363 14.3777H137.013L133.033 9.67524H130.991V14.3777H129.223V3.60758H130.991V8.06276H133.033L136.914 3.6195H139.268L134.601 8.83028Z" fill="#003790"/>
<path d="M0.726567 8.9968C0.725392 10.1709 0.955688 11.3338 1.40428 12.4188C1.85288 13.5039 2.51097 14.4898 3.34093 15.3203C4.17089 16.1509 5.15642 16.8096 6.24117 17.2589C7.32592 17.7082 8.48861 17.9393 9.66274 17.9389H10.0202V14.5382H9.66274C8.92633 14.5522 8.19454 14.4192 7.51013 14.147C6.82573 13.8748 6.20245 13.4689 5.67673 12.9531C5.15101 12.4372 4.73341 11.8217 4.44833 11.1426C4.16325 10.4635 4.01642 9.73433 4.01642 8.99779C4.01642 8.26125 4.16325 7.53211 4.44833 6.85298C4.73341 6.17385 5.15101 5.55836 5.67673 5.0425C6.20245 4.52665 6.82573 4.12077 7.51013 3.8486C8.19454 3.57643 8.92633 3.44342 9.66274 3.45737H10.0202V0.0705566H9.66274C7.29444 0.0705552 5.02299 1.01068 3.34742 2.68439C1.67185 4.3581 0.729198 6.6285 0.726567 8.9968Z" fill="#FC5055"/>
<path d="M11.4492 0.242432V4.88924H9.65801C9.11073 4.87721 8.56655 4.97461 8.05741 5.17574C7.54828 5.37686 7.08444 5.67765 6.69313 6.06046C6.30181 6.44326 5.9909 6.90038 5.77864 7.40497C5.56637 7.90956 5.45703 8.45147 5.45703 8.99889C5.45703 9.54631 5.56637 10.0882 5.77864 10.5928C5.9909 11.0974 6.30181 11.5545 6.69313 11.9373C7.08444 12.3201 7.54828 12.6209 8.05741 12.822C8.56655 13.0232 9.11073 13.1206 9.65801 13.1085H11.4492V17.7543C13.4672 17.3422 15.2808 16.2457 16.5834 14.6503C17.8859 13.0549 18.5974 11.0585 18.5974 8.99889C18.5974 6.93928 17.8859 4.94289 16.5834 3.34747C15.2808 1.75204 13.4672 0.655529 11.4492 0.243425V0.242432Z" fill="#003790"/>
</g>
</svg>

<svg width="140" height="18" viewBox="0 0 140 18" fill="none" xmlns="http://www.w3.org/2000/svg"><mask id="a" style="mask-type:luminance" maskUnits="userSpaceOnUse" x="0" y="0" width="140" height="18"><path d="M.727.063h138.64v17.872H.727V.063Z" fill="#fff"/></mask><g mask="url(#a)"><path d="M27.767 3.375c1.919 0 3.487.844 4.146 1.475l-1.104 1.353a4.944 4.944 0 0 0-3.061-1.138c-2.413 0-3.917 1.66-3.917 3.935 0 2.275 1.416 3.932 3.935 3.932a5.022 5.022 0 0 0 3.284-1.305l1.046 1.398c-.66.692-2.306 1.597-4.333 1.597-3.55 0-5.747-2.388-5.747-5.622 0-3.233 2.245-5.625 5.75-5.625Zm10.95 0c3.285 0 5.674 2.39 5.674 5.625 0 3.237-2.39 5.622-5.674 5.622-3.283 0-5.672-2.388-5.672-5.622 0-3.233 2.386-5.625 5.672-5.625Zm0 9.554c2.227 0 3.883-1.675 3.883-3.932 0-2.257-1.647-3.935-3.883-3.935-2.236 0-3.88 1.675-3.88 3.935s1.653 3.935 3.881 3.935v-.003Zm16.98-1.672c0 1.583-1.015 3.12-3.642 3.12h-5.733V3.608h5.395c2.183 0 3.443 1.353 3.443 2.876 0 .86-.4 1.642-1.352 2.272.967.334 1.889 1.027 1.889 2.502Zm-7.608-5.948V8.17l3.413-.018c1.212 0 1.843-.675 1.843-1.475 0-.737-.538-1.368-1.613-1.368H48.09Zm4.073 7.378c1.245 0 1.723-.692 1.723-1.445 0-.814-.57-1.474-1.693-1.474H48.09v2.919h4.073ZM62.765 8.83l4.776 5.548h-2.365l-3.97-4.703h-2.043v4.703h-1.767V3.608h1.767v4.455h2.043l3.882-4.455h2.352L62.765 8.83Z" fill="#003790"/><path d="M72.985 3.375c3.284 0 5.672 2.39 5.672 5.625 0 3.237-2.388 5.622-5.672 5.622-3.285 0-5.672-2.388-5.672-5.622 0-3.233 2.382-5.625 5.672-5.625Zm0 9.554c2.227 0 3.881-1.675 3.881-3.932 0-2.257-1.645-3.935-3.882-3.935-2.235 0-3.88 1.675-3.88 3.935s1.657 3.935 3.881 3.935v-.003Zm17.576-9.32h1.696v10.748H90.49v-7.97l-3.535 4.718H85.88l-3.535-4.717v7.99h-1.767V3.608h1.705l4.134 5.517 4.144-5.516Zm9.805 4.406c2.366 0 3.658 1.382 3.658 3.165 0 1.782-1.292 3.197-3.535 3.197h-5.843V3.609h8.374V5.31h-6.603v2.706h3.949Zm.045 4.673c1.23 0 1.791-.678 1.791-1.494 0-.814-.552-1.492-1.791-1.492h-3.994v2.986h3.994Zm13.43 1.69-1.168-2.688h-5.075l-1.168 2.688h-1.931l4.67-10.75h1.952l4.672 10.75h-1.952Zm-5.562-4.304h3.701l-1.841-4.287-1.86 4.287Zm16.794-6.465h1.767v10.748h-1.767v-4.59h-6.222v4.61h-1.768V3.608h1.768v4.479h6.222V3.609Zm9.528 5.221 4.762 5.548h-2.35l-3.98-4.703h-2.042v4.703h-1.768V3.608h1.768v4.455h2.042l3.881-4.444h2.354l-4.667 5.211Z" fill="#003790"/><path d="M.727 8.997a8.933 8.933 0 0 0 8.936 8.942h.357v-3.4h-.357a5.54 5.54 0 0 1-3.986-9.496 5.542 5.542 0 0 1 3.986-1.586h.357V.071h-.357A8.936 8.936 0 0 0 .727 8.997Z" fill="#FC5055"/><path d="M11.45.242V4.89H9.657a4.11 4.11 0 1 0 0 8.22h1.791v4.645a8.936 8.936 0 0 0 0-17.51V.241Z" fill="#003790"/></g></svg>
